assets/svg/icon_feed_sendbutton.svg

<svg width="20" height="20" viewBox="0 0 20 20" fill="none" xmlns="http://www.w3.org/2000/svg">
<path d="M8.94138 6.80882C8.41605 6.80882 7.88966 6.82642 7.36485 6.80401C6.85318 6.78215 6.36097 6.64934 5.88822 6.44239C5.42073 6.23757 4.99426 5.96395 4.63667 5.60392C4.35375 5.3191 4.11344 4.98948 3.86786 4.66892C3.61229 4.33556 3.3746 3.9878 3.12429 3.65018C2.99545 3.47576 2.62629 3.36375 2.44329 3.43202C2.18667 3.52803 2.00841 3.77658 2.00841 4.04007C2.00841 5.07802 1.98527 6.1165 2.01577 7.15337C2.03522 7.81423 2.19719 8.45854 2.42068 9.08259C2.73357 9.95679 3.17845 10.7483 3.77741 11.4593C4.45262 12.261 5.25876 12.8813 6.19007 13.3352C6.82163 13.6429 7.48527 13.883 8.18467 13.9486C8.95505 14.0211 9.73175 14.0312 10.5053 14.0627C10.7598 14.0734 10.8408 14.1454 10.8413 14.403C10.8424 14.8089 10.8445 15.2148 10.8429 15.6202C10.8413 16.3039 11.4734 16.9984 12.208 17C12.8059 17.0016 13.2387 16.7685 13.5963 16.3066C13.793 16.0522 14.0307 15.8308 14.251 15.5956C14.9704 14.827 15.6898 14.0579 16.4097 13.2898C16.9093 12.757 17.4157 12.23 17.9068 11.6892C18.1524 11.4188 18.4153 11.151 18.4737 10.76C18.5463 10.2741 18.4784 9.82664 18.1287 9.45275C17.4635 8.74176 16.8004 8.02917 16.1373 7.31605C15.766 6.91656 15.3963 6.51546 15.0267 6.11383C14.5197 5.56232 14.0133 5.01081 13.508 4.4577C13.1672 4.08434 12.7623 3.84752 12.2464 3.85499C11.6186 3.86406 11.0522 4.31956 10.8881 4.94361C10.8392 5.12975 10.8471 5.3335 10.8429 5.52978C10.8361 5.85568 10.8429 6.18157 10.8403 6.50746C10.8387 6.72934 10.7514 6.81788 10.5363 6.81842C10.0042 6.81948 9.47145 6.81842 8.93928 6.81842C8.93928 6.81522 8.93928 6.81201 8.93928 6.80882H8.94138ZM3.28783 6.01195C3.33253 6.05462 3.37039 6.08289 3.39774 6.11863C3.81843 6.67227 4.36532 7.0739 4.96113 7.40406C5.74624 7.83983 6.59393 8.07345 7.49053 8.08625C8.53542 8.10118 9.58083 8.10811 10.6257 8.08945C11.1994 8.07931 11.6732 7.81956 11.9236 7.28032C12.0387 7.03177 12.075 6.73521 12.0981 6.45625C12.1271 6.10583 12.0966 5.75113 12.1108 5.39911C12.1144 5.31217 12.1718 5.18896 12.2401 5.15482C12.2974 5.12602 12.4331 5.17616 12.4883 5.23483C12.9379 5.71273 13.3739 6.20397 13.8198 6.68614C14.4813 7.40086 15.1471 8.11131 15.8113 8.82337C16.2646 9.30927 16.7236 9.78984 17.1648 10.2864C17.2179 10.3456 17.2195 10.5216 17.1711 10.5899C17.0397 10.7766 16.8693 10.9345 16.7136 11.1035C16.344 11.5046 15.9748 11.9073 15.6035 12.3068C14.9315 13.0296 14.2584 13.7512 13.5837 14.4718C13.2277 14.8516 12.8591 15.2201 12.5141 15.6095C12.4094 15.7274 12.2959 15.7295 12.1886 15.698C12.1423 15.6842 12.1113 15.5465 12.1076 15.4639C12.0876 15.0084 12.0818 14.5518 12.064 14.0963C12.0371 13.4173 11.3951 12.8279 10.7667 12.7991C10.2297 12.7746 9.69232 12.7655 9.15541 12.7586C8.46863 12.7495 7.81235 12.6077 7.16975 12.3623C6.06859 11.942 5.16148 11.2577 4.4705 10.3035C3.55234 9.03565 3.15111 7.60568 3.28783 6.01195Z" fill="white"/>
</svg>

<svg xmlns="http://www.w3.org/2000/svg" width="20" height="20" fill="none"><path fill="#fff" d="M8.941 6.809c-.525 0-1.051.017-1.576-.005a4.1 4.1 0 0 1-1.477-.362 4 4 0 0 1-1.251-.838c-.283-.285-.524-.615-.77-.935-.255-.333-.492-.681-.743-1.019-.129-.174-.498-.286-.68-.218a.67.67 0 0 0-.436.608c0 1.038-.023 2.077.008 3.113.02.661.181 1.306.405 1.93a7.6 7.6 0 0 0 1.356 2.376 7.3 7.3 0 0 0 2.413 1.876c.632.308 1.295.548 1.995.614.77.072 1.547.082 2.32.114.255.01.336.082.336.34q.003.61.002 1.217c-.002.684.63 1.378 1.365 1.38.598.002 1.03-.232 1.388-.693.197-.255.435-.476.655-.711l2.159-2.306c.5-.533 1.006-1.06 1.497-1.6.245-.271.508-.539.567-.93.072-.486.004-.933-.345-1.307a952 952 0 0 1-1.992-2.137q-.556-.6-1.11-1.202l-1.519-1.656c-.34-.374-.746-.61-1.262-.603-.627.01-1.194.465-1.358 1.089-.049.186-.04.39-.045.586-.007.326 0 .652-.003.977-.001.222-.089.31-.304.311H8.94v-.01zm-5.653-.797c.045.043.082.07.11.107.42.553.967.955 1.563 1.285.785.436 1.633.67 2.53.682 1.044.015 2.09.022 3.135.003.573-.01 1.047-.27 1.298-.809.115-.248.151-.545.174-.824.03-.35-.001-.705.013-1.057.003-.087.06-.21.13-.244.056-.029.192.021.247.08.45.478.886.969 1.332 1.451q.993 1.07 1.991 2.137c.454.486.913.967 1.354 1.463.053.06.055.236.006.304-.131.187-.302.345-.457.514l-1.11 1.203q-1.009 1.084-2.02 2.165c-.356.38-.725.748-1.07 1.138-.105.117-.218.12-.325.088-.047-.014-.078-.152-.081-.234-.02-.456-.026-.912-.044-1.368-.027-.679-.669-1.268-1.297-1.297a49 49 0 0 0-1.612-.04 5.7 5.7 0 0 1-1.985-.397 5.83 5.83 0 0 1-2.7-2.059c-.918-1.267-1.319-2.697-1.182-4.291"/></svg>
